X:6186
T:Gerineldo
C:Trad.
M:2/4
L:1/8
Q:1/4=60
K:Am
E E|[M:3/4] A3 ^G AB|[M:4/4] c2 A4 B c|[M:3/4] B3 AA ^G|[M:4/4] A2 E4 EF|
|GFGF EDDD|GFGF EDDD|DB,CD F2 E2-|1 [M:2/4] E2 EE :|2 E2 z2|
